src/symbolic/places/folder-pictures-symbolic.svg

<?xml version="1.0" encoding="UTF-8" standalone="no"?>
<svg
   xmlns:dc="http://purl.org/dc/elements/1.1/"
   xmlns:cc="http://creativecommons.org/ns#"
   xmlns:rdf="http://www.w3.org/1999/02/22-rdf-syntax-ns#"
   xmlns:svg="http://www.w3.org/2000/svg"
   xmlns="http://www.w3.org/2000/svg"
   xmlns:sodipodi="http://sodipodi.sourceforge.net/DTD/sodipodi-0.dtd"
   xmlns:inkscape="http://www.inkscape.org/namespaces/inkscape"
   height="16"
   width="16"
   version="1.1"
   id="svg10"
   sodipodi:docname="folder-pictures-symbolic.svg"
   inkscape:version="0.92.5 (2060ec1f9f, 2020-04-08)">
  <metadata
     id="metadata16">
    <rdf:RDF>
      <cc:Work
         rdf:about="">
        <dc:format>image/svg+xml</dc:format>
        <dc:type
           rdf:resource="http://purl.org/dc/dcmitype/StillImage" />
      </cc:Work>
    </rdf:RDF>
  </metadata>
  <defs
     id="defs14">
    <style
       type="text/css"
       id="current-color-scheme">.ColorScheme-Text { color:#727272; } .ColorScheme-Highlight { color:#5294e2; }</style>
  </defs>
  <sodipodi:namedview
     pagecolor="#ffffff"
     bordercolor="#666666"
     borderopacity="1"
     objecttolerance="10"
     gridtolerance="10"
     guidetolerance="10"
     inkscape:pageopacity="0"
     inkscape:pageshadow="2"
     inkscape:window-width="1920"
     inkscape:window-height="971"
     id="namedview12"
     showgrid="false"
     inkscape:zoom="20.85965"
     inkscape:cx="2.672956"
     inkscape:cy="10.24386"
     inkscape:window-x="0"
     inkscape:window-y="38"
     inkscape:window-maximized="1"
     inkscape:current-layer="svg10" />
  <path
     id="path826"
     d="M 1.5,3.1250002 V 12.875 h 13 V 3.1250002 Z m 0.8125,0.8125 h 11.375 V 9.9550779 L 11.256348,7.4191893 8.6887205,9.9868159 5.5878909,6.616211 2.3125,9.5885009 Z m 8.125,0.8125 a 0.81249998,0.81249998 0 0 0 -0.8125,0.8124999 0.81249998,0.81249998 0 0 0 0.8125,0.8125 0.81249998,0.81249998 0 0 0 0.8125,-0.8125 0.81249998,0.81249998 0 0 0 -0.8125,-0.8124999 z M 5.5371091,7.7587892 9.4948728,12.0625 H 2.3125 V 10.686646 Z M 11.243653,8.5808108 13.6875,11.129394 V 12.0625 H 10.597779 L 9.2393801,10.585083 Z"
     class="ColorScheme-Text"
     inkscape:connector-curvature="0"
     style="color:#727272;fill:#ebebeb;fill-opacity:1;stroke-width:0.8125" />
</svg>

<?xml version="1.0" encoding="UTF-8"?>
<svg width="16" height="16" version="1.1" xmlns="http://www.w3.org/2000/svg" xmlns:cc="http://creativecommons.org/ns#" xmlns:dc="http://purl.org/dc/elements/1.1/" xmlns:rdf="http://www.w3.org/1999/02/22-rdf-syntax-ns#">
 <metadata>
  <rdf:RDF>
   <cc:Work rdf:about="">
    <dc:format>image/svg+xml</dc:format>
    <dc:type rdf:resource="http://purl.org/dc/dcmitype/StillImage"/>
    <dc:title/>
   </cc:Work>
  </rdf:RDF>
 </metadata>
 <defs>
  <style id="current-color-scheme" type="text/css">.ColorScheme-Text { color:#727272; } .ColorScheme-Highlight { color:#5294e2; }</style>
 </defs>
 <path class="ColorScheme-Text" d="m1.5 3.125v9.75h13v-9.75zm0.8125 0.8125h11.375v6.0175l-2.4312-2.5359-2.5677 2.5677-3.1009-3.3705-3.2754 2.9723zm8.125 0.8125a0.8125 0.8125 0 0 0-0.8125 0.8125 0.8125 0.8125 0 0 0 0.8125 0.8125 0.8125 0.8125 0 0 0 0.8125-0.8125 0.8125 0.8125 0 0 0-0.8125-0.8125zm-4.9004 3.0088 3.9578 4.3037h-7.1823v-1.3759zm5.7065 0.82201 2.4438 2.5486v0.93303h-3.0897l-1.3584-1.4774z" color="#727272" fill="#ebebeb" stroke-width=".8125"/>
</svg>
